Font-Source/Egyptian2/svg-my/13890.svg

<?xml version="1.0" encoding="UTF-8" standalone="no"?>
<svg
   width="500"
   height="1000"
   version="1.1"
   id="svg1"
   sodipodi:docname="13890.svg"
   inkscape:version="1.4.2 (f4327f4, 2025-05-13)"
   xmlns:inkscape="http://www.inkscape.org/namespaces/inkscape"
   xmlns:sodipodi="http://sodipodi.sourceforge.net/DTD/sodipodi-0.dtd"
   xmlns="http://www.w3.org/2000/svg"
   xmlns:svg="http://www.w3.org/2000/svg">
  <defs
     id="defs1" />
  <sodipodi:namedview
     id="namedview1"
     pagecolor="#ffffff"
     bordercolor="#666666"
     borderopacity="1.0"
     inkscape:showpageshadow="2"
     inkscape:pageopacity="0.0"
     inkscape:pagecheckerboard="0"
     inkscape:deskcolor="#d1d1d1"
     inkscape:zoom="0.3775"
     inkscape:cx="549.66887"
     inkscape:cy="541.72185"
     inkscape:window-width="1680"
     inkscape:window-height="998"
     inkscape:window-x="-8"
     inkscape:window-y="-8"
     inkscape:window-maximized="1"
     inkscape:current-layer="svg1" />
  <path
     id="path1"
     style="fill:#000000;stroke:none;stroke-width:55.6398"
     d="m 238.00391,0 c 2.50862,5.6444017 7.83913,13.95447 15.99218,24.929688 8.15302,10.975254 14.42437,26.183179 18.81446,45.625 4.39009,19.441821 10.03487,32.455882 16.93359,39.041012 6.89871,6.58516 13.48429,11.13201 19.75586,13.64063 h -8.4668 c -3.76298,2.50863 -3.76298,4.70252 0,6.58398 h 3.76368 l 1.07812,5.38672 c -14.94591,7.76943 -24.71302,21.34037 -29.30078,40.71094 -3.13579,10.66166 -4.07657,18.50036 -2.82227,23.51758 -5.64438,10.66167 -8.46679,18.18803 -8.46679,22.57812 0,2.50863 2.50812,3.76172 7.52539,3.76172 l -0.93946,4.70508 c 0,1.25429 0.94081,1.88086 2.82227,1.88086 -1.25457,1.88146 -1.56852,3.44884 -0.94141,4.70312 3.13603,1.25429 4.07656,1.88282 2.82227,1.88282 -1.88148,11.91593 3.44904,17.87304 15.99219,17.87304 h 10.34765 c 0.62713,7.52589 3.13726,16.61962 7.52735,27.28125 l -19.75586,-0.9414 c -26.34053,7.52588 -40.76482,20.69703 -43.27344,39.51172 -21.95047,28.222 -41.70724,56.444 -59.26758,84.66601 -24.56294,10.5166 -65.06884,35.40486 -94.720702,59.73438 -13.170284,-6.89872 -12.521742,-5.66602 -23.810547,-5.66602 V 286.92383 c 12.543111,-33.23924 24.144971,-54.24911 34.806639,-63.0293 6.27157,3.76292 10.81847,4.86087 13.64063,3.29297 2.82224,-1.56789 1.7243,-6.11479 -3.29297,-13.64062 -11.28881,-16.30609 -29.47628,-24.45899 -54.562502,-24.45899 -25.086259,0 -43.273696,8.1529 -54.5624999,24.45899 -5.64440168,7.52584 -7.0546229,12.07273 -4.2324219,13.64062 2.8222011,1.5679 7.6813692,0.46995 14.5800778,-3.29297 10.034497,8.78019 21.32404,29.79006 33.867188,63.0293 V 461.40625 H 35.746094 c -5.01723,3.76292 -2.821387,8.46693 6.585937,14.11133 -5.644401,2.50865 -7.056576,8.15344 -4.234375,16.93359 2.822201,8.78019 6.7425,13.16992 11.759766,13.16992 v 493.4375 h 19.755859 v -493.4375 c 8.153055,-3.13578 16.618288,-8.15207 25.398438,-15.05078 42.564371,-16.38016 81.260891,-41.12326 109.660251,-58.40177 31.98497,-29.47632 53.40135,-51.48489 80.36905,-87.85995 3.13579,8.15306 0.62763,17.8733 -7.5254,29.16211 3.76293,11.91594 8.30981,18.18729 13.64063,18.81446 5.33085,0.62714 7.99609,3.13724 7.99609,7.52734 -15.6789,116.02382 -22.89102,186.2655 -21.63672,210.72461 11.91594,67.73287 18.18728,106.4588 18.81446,116.17969 0.62713,9.72089 -0.62792,36.84497 -3.76367,81.37304 -3.13578,44.52806 -6.27046,75.88672 -9.40625,94.07422 -2.50861,15.67892 -5.01873,26.33995 -7.52735,31.98438 -10.03453,16.93321 -30.57298,29.32072 -61.61719,37.16015 -31.0442,7.83943 -46.25218,14.89441 -45.625,21.16602 L 170.27148,1000 H 364.0625 c 20.69613,-1.88146 26.02665,-13.79763 15.99219,-35.74805 -1.25434,-15.67891 -0.78293,-27.43796 1.41211,-35.27734 2.19505,-7.83949 3.60524,-16.77607 4.23242,-26.81055 6.27155,-76.51296 8.15316,-134.99571 5.64453,-175.44726 -2.50862,-40.45155 -0.31277,-94.23029 6.58594,-161.33594 8.15307,-29.47636 10.6612,-52.3678 7.52539,-68.67383 -11.28884,-29.47632 -17.56016,-52.99432 -18.81446,-70.55469 l 3.76172,-32.92578 9.40821,-18.81445 c 0.62717,19.44186 4.70266,45.46798 12.22851,78.08008 -2.50862,16.30604 -1.25359,34.65062 3.76367,55.0332 5.01723,20.38258 7.83962,43.11694 8.4668,68.20313 -6.89875,14.42462 -9.72114,25.87129 -8.4668,34.33789 1.25431,8.46655 2.19513,15.20751 2.82227,20.22461 -1.25429,5.01738 -0.94005,8.15408 0.94141,9.4082 1.88146,0.62707 3.29172,-0.62781 4.23242,-3.76367 0.94092,-3.13575 1.41211,-6.89909 1.41211,-11.28907 -0.62712,-5.01727 -0.62712,-9.407 0,-13.16992 0.62717,-1.25412 1.09634,-2.03998 1.41015,-2.35156 0.31358,-0.31326 0.78499,0.78417 1.41211,3.29297 0.62712,11.28877 -0.15846,19.75595 -2.35351,25.40039 -2.19505,5.64438 -4.54606,13.4831 -7.05469,23.51758 0,3.13586 0.78368,4.70312 2.35156,4.70312 1.56804,0 2.03922,-0.62673 1.41211,-1.88086 1.25428,1.25468 2.19515,1.88086 2.82227,1.88086 1.25434,0 1.88086,-0.31238 1.88086,-0.93945 0.62711,0.62929 1.56797,0.93945 2.82226,0.93945 1.25429,0 1.88086,-0.31238 1.88086,-0.93945 1.25429,1.25246 2.50939,1.56652 3.76367,0.93945 1.25429,-0.62706 2.1951,-2.19432 2.82227,-4.70312 0.62718,-6.27155 2.50873,-13.4837 5.64453,-21.63672 3.13575,-8.15301 4.70313,-14.42447 4.70313,-18.81445 0,-6.27156 -0.62657,-11.28982 -1.88086,-15.05274 -1.88146,-10.03448 -4.0773,-18.81394 -6.58594,-26.33984 7.52589,-52.68109 6.89933,-91.87841 -1.88086,-117.5918 0.62718,-37.0022 -2.19523,-73.06287 -8.4668,-108.18359 l -5.64453,-12.23047 -0.94141,-36.68945 c 0,-78.3945 -6.58366,-127.93864 -19.7539,-148.63477 -4.69087,-7.2495 -9.96181,-13.19416 -15.8125,-17.83399 l 1.70117,-8.50781 h 3.76172 c 3.13581,-1.88146 3.13581,-4.07535 0,-6.58398 h -8.4668 c 6.27157,-2.50862 13.01426,-7.05547 20.22657,-13.64063 7.2123,-6.58513 13.01419,-19.59919 17.40429,-39.041012 4.39005,-19.441821 10.50428,-34.649745 18.34375,-45.625 C 448.57185,13.95447 453.74526,5.6444017 456.25391,0 c -6.27157,1.8814795 -14.89392,8.6241727 -25.86914,20.226562 -9.56112,10.107418 -18.29031,29.138065 -26.18555,57.09375 0.20957,-1.889177 0.31445,-3.830254 0.31445,-5.824218 0,-14.424556 -5.01629,-27.124355 -15.05078,-38.09961 -10.0345,-10.975219 -24.14647,-16.46289 -42.33398,-16.46289 -18.18751,0 -32.14237,5.487672 -41.86329,16.46289 -9.72094,10.975255 -14.58007,23.675054 -14.58007,38.09961 0,2.458181 0.15805,4.835843 0.47656,7.134765 C 282.67946,49.958423 273.5848,30.49119 263.875,20.226562 252.89978,8.6241727 244.27548,1.8814795 238.00391,0 Z m 109.125,28.222656 c 13.79742,0 24.6156,4.232616 32.45507,12.699219 7.83943,8.466603 11.75977,18.344006 11.75977,29.632813 0,12.54311 -4.23261,22.891908 -12.69922,31.044922 -8.4666,8.15308 -18.97251,12.22851 -31.51562,12.22851 -12.54311,0 -23.20419,-4.07545 -31.98438,-12.22851 -8.78019,-8.153014 -12.85764,-18.501812 -12.23047,-31.044922 0,-11.288807 3.92034,-21.16621 11.75977,-29.632813 7.83947,-8.466603 18.65767,-12.699219 32.45508,-12.699219 z m -37.7793,99.716794 h 30.51562 c -7.70119,0.23535 -15.31498,1.17621 -22.83984,2.82227 -2.32804,0.68472 -4.56197,1.4751 -6.70312,2.36914 z m 38.25391,0 h 34.33203 l -1.06446,5.68164 c -0.58067,-0.3372 -1.16725,-0.66355 -1.75781,-0.97851 -10.66055,-2.82191 -21.16272,-4.38933 -31.50976,-4.70313 z m -6.11914,13.16993 c 23.20473,-10e-6 39.51064,6.89984 48.91796,20.69726 12.54315,21.3233 18.81446,68.98583 18.81446,142.99024 v 36.68945 H 353.71484 V 220.13086 c 5.6444,-6.27157 8.30969,-15.67759 7.9961,-28.2207 -0.31359,-12.54311 -8.93789,-16.62057 -25.8711,-12.23047 -10.66163,-8.15306 -25.40016,-11.28772 -44.21484,-9.40625 6.27157,-19.44182 22.89168,-29.16406 49.85938,-29.16406 z m -37.7461,37.74804 c 12.93509,0.23517 22.69416,3.64533 29.2793,10.23047 -1.25435,1.25431 -1.41147,4.70326 -0.4707,10.34766 0.94072,5.6444 0.47132,9.87702 -1.41016,12.69922 -1.88146,2.82222 -2.82227,5.48746 -2.82227,7.99609 0,4.39004 2.19584,6.58594 6.58594,6.58594 3.1358,0 5.32969,-0.94081 6.58399,-2.82227 v 60.20703 h -18.81446 c -5.01726,-10.03446 -8.78043,-21.95058 -11.28906,-35.74804 h -15.99219 c -5.64438,0 -8.77913,-1.88162 -9.40625,-5.64454 1.25431,-5.64439 4.38904,-8.77908 9.40625,-9.40625 0,-3.13575 -0.94079,-4.70507 -2.82226,-4.70507 h -11.28907 c 1.88145,-4.39009 -0.31244,-7.52479 -6.58398,-9.40625 0,-2.50862 3.44895,-10.9758 10.34766,-25.40039 5.01727,-2.50863 8.46619,-3.76368 10.34765,-3.76368 3.13579,0 7.52552,0.94083 13.16992,2.82227 h 9.40821 v -3.76172 h -9.40821 c -5.01723,-2.50863 -9.40694,-3.76367 -13.16992,-3.76367 -3.13579,0 -5.95819,0.31422 -8.46679,0.9414 0.62716,-3.76296 1.56795,-5.9588 2.82226,-6.58593 5.01725,-0.62716 9.68244,-0.90066 13.99414,-0.82227 z m 43.27344,8.28906 c 3.99812,-0.1176 6.23274,2.41189 6.70312,7.58594 -1.88148,15.05173 -8.46705,23.20468 -19.75586,24.45899 3.13579,-8.78019 4.23373,-15.36576 3.29297,-19.75586 -0.94072,-4.39009 0.78374,-8.15332 5.17383,-11.28907 1.72468,-0.62716 3.25323,-0.9608 4.58594,-1 z m -51.41797,5.20508 c -1.15632,-0.0588 -2.32213,-0.0491 -3.49805,0.0293 -4.70369,0.31355 -7.68123,4.54617 -8.93554,12.69922 3.13579,1.88145 6.58473,2.50799 10.34765,1.88086 5.01726,0 8.46622,-2.50812 10.34766,-7.52539 h 14.11133 v -4.70313 h -12.23047 c -3.29254,-1.41111 -6.67362,-2.20447 -10.14258,-2.38086 z m -1.14648,3.32032 c 3.13578,0 5.95817,0.31423 8.46679,0.9414 -1.88146,3.76292 -4.07535,6.2711 -6.58398,7.52539 1.25417,-1.88147 1.72396,-3.76307 1.41015,-5.64453 -0.31359,-1.88146 -1.4115,-2.82226 -3.29296,-2.82226 z m -5.64454,0.9414 c -0.6269,1.88146 -0.93945,3.60595 -0.93945,5.17383 0,1.33564 0.68154,2.32945 2.04688,2.98242 l -3.92774,-1.57031 c 0,-2.50865 0.93886,-4.70449 2.82031,-6.58594 z m -228.597652,9.4082 c 13.170245,0 24.459827,2.50813 33.867188,7.5254 -12.543111,15.67889 -23.832693,37.00104 -33.867188,63.96874 -10.034496,-26.96769 -21.322123,-48.28985 -33.865234,-63.96874 9.407324,-5.01728 20.694951,-7.5254 33.865234,-7.5254 z m 223.894532,92.19141 h 57.38477 v 59.26563 h 50.80078 l -10.34961,22.57812 h -75.25782 c -9.4073,0.62713 -14.11132,-2.50949 -14.11132,-9.4082 15.6789,-30.10349 12.85654,-54.24803 -8.4668,-72.43555 z m 37.62891,105.36133 h 47.97851 c -1.2543,29.47627 2.19461,54.87588 10.34766,76.19922 8.15302,21.3233 9.25095,42.80455 3.29297,64.4414 -5.95797,21.63688 -9.0944,46.09569 -9.40821,73.37696 -0.31353,27.28127 -1.40955,53.46456 -3.29101,78.55078 5.6444,49.54533 3.44855,117.90541 -6.58594,205.08008 h -59.26562 c 11.91597,-102.22641 13.64047,-176.23128 5.17382,-222.01368 -8.4666,-45.78241 -12.70117,-73.06362 -12.70117,-81.84375 1.25434,-43.90091 9.40726,-108.49781 24.45899,-193.79101 z m 0.9414,510.81836 h 21.63672 c 3.13579,13.17028 1.72557,24.30276 -4.23242,33.39648 -5.95798,9.09372 -15.52311,15.20789 -28.69336,18.34375 -1.88148,-10.6617 1.8817,-27.90835 11.28906,-51.74023 z"
     sodipodi:nodetypes="cssscccccccscccccscccccccccscscscccccsccccccccsccssccsccccscsccccccscscccccccscscscscscssccccccccccccssscscssssscscsssssscssccccccccccscscccsccsscssssccccsccscccsccccsccssccscsssccccccsccccccscccscccsccccccccccssccccsccccscc" />
</svg>

<?xml version="1.0" encoding="UTF-8" standalone="no"?>
<svg
   width="500"
   height="1000"
   version="1.1"
   id="svg1"
   sodipodi:docname="13890.svg"
   inkscape:version="1.4.2 (f4327f4, 2025-05-13)"
   xmlns:inkscape="http://www.inkscape.org/namespaces/inkscape"
   xmlns:sodipodi="http://sodipodi.sourceforge.net/DTD/sodipodi-0.dtd"
   xmlns="http://www.w3.org/2000/svg"
   xmlns:svg="http://www.w3.org/2000/svg">
  <defs
     id="defs1" />
  <sodipodi:namedview
     id="namedview1"
     pagecolor="#ffffff"
     bordercolor="#666666"
     borderopacity="1.0"
     inkscape:showpageshadow="2"
     inkscape:pageopacity="0.0"
     inkscape:pagecheckerboard="0"
     inkscape:deskcolor="#d1d1d1"
     inkscape:zoom="0.755"
     inkscape:cx="604.63576"
     inkscape:cy="103.97351"
     inkscape:window-width="1680"
     inkscape:window-height="998"
     inkscape:window-x="-8"
     inkscape:window-y="-8"
     inkscape:window-maximized="1"
     inkscape:current-layer="svg1" />
  <path
     id="path1"
     style="fill:#000000;stroke:none;stroke-width:55.6398"
     d="M 238.00391 0 C 240.51253 5.6444017 245.84304 13.95447 253.99609 24.929688 C 262.14911 35.904942 268.42046 51.112867 272.81055 70.554688 C 277.20064 89.996509 282.84542 103.01057 289.74414 109.5957 C 296.64285 116.18086 303.22843 120.72771 309.5 123.23633 L 301.0332 123.23633 C 297.27022 125.74496 297.27022 127.93885 301.0332 129.82031 L 304.79688 129.82031 L 305.875 135.20703 C 290.92909 142.97646 281.16198 156.5474 276.57422 175.91797 C 273.43843 186.57963 272.49765 194.41833 273.75195 199.43555 C 268.10757 210.09722 265.28516 217.62358 265.28516 222.01367 C 265.28516 224.5223 267.79328 225.77539 272.81055 225.77539 L 271.87109 230.48047 C 271.87109 231.73476 272.8119 232.36133 274.69336 232.36133 C 273.43879 234.24279 273.12484 235.81017 273.75195 237.06445 C 276.88798 238.31874 277.82851 238.94727 276.57422 238.94727 C 274.69274 250.8632 280.02326 256.82031 292.56641 256.82031 L 302.91406 256.82031 C 303.54119 264.3462 306.05132 273.43993 310.44141 284.10156 L 290.68555 283.16016 C 264.34502 290.68604 249.92073 303.85719 247.41211 322.67188 C 225.46164 350.89388 205.70487 379.11588 188.14453 407.33789 C 163.58159 417.85449 123.07569 442.74275 93.423828 467.07227 C 80.253544 460.17355 80.902086 461.40625 69.613281 461.40625 L 69.613281 286.92383 C 82.156392 253.68459 93.758252 232.67472 104.41992 223.89453 C 110.69149 227.65745 115.23839 228.7554 118.06055 227.1875 C 120.88279 225.61961 119.78485 221.07271 114.76758 213.54688 C 103.47877 197.24079 85.2913 189.08789 60.205078 189.08789 C 35.118819 189.08789 16.931382 197.24079 5.6425781 213.54688 C -0.001823585 221.07272 -1.4120448 225.61961 1.4101562 227.1875 C 4.2323573 228.7554 9.0915254 227.65745 15.990234 223.89453 C 26.024731 232.67472 37.314274 253.68459 49.857422 286.92383 L 49.857422 461.40625 L 35.746094 461.40625 C 30.728864 465.16917 32.924707 469.87318 42.332031 475.51758 C 36.68763 478.02623 35.275455 483.67102 38.097656 492.45117 C 40.919857 501.23136 44.840156 505.62109 49.857422 505.62109 L 49.857422 999.05859 L 69.613281 999.05859 L 69.613281 505.62109 C 77.766336 502.48531 86.231569 497.46902 95.011719 490.57031 C 137.57609 474.19015 168.21197 460.36445 196.61133 443.08594 C 228.5963 413.60962 258.07332 380.68365 285.04102 344.30859 C 288.17681 352.46165 285.66865 362.18189 277.51562 373.4707 C 281.27855 385.38664 285.82543 391.65799 291.15625 392.28516 C 296.4871 392.9123 299.15234 395.4224 299.15234 399.8125 C 283.47344 515.83632 276.26132 586.078 277.51562 610.53711 C 289.43156 678.26998 295.7029 716.99591 296.33008 726.7168 C 296.95721 736.43769 295.70216 763.56177 292.56641 808.08984 C 289.43063 852.6179 286.29595 883.97656 283.16016 902.16406 C 280.65155 917.84298 278.14143 928.50401 275.63281 934.14844 C 265.59828 951.08165 245.05983 963.46916 214.01562 971.30859 C 182.97142 979.14802 167.76344 986.203 168.39062 992.47461 L 170.27148 1000 L 364.0625 1000 C 384.75863 998.11854 390.08915 986.20237 380.05469 964.25195 C 378.80035 948.57304 379.27176 936.81399 381.4668 928.97461 C 383.66185 921.13512 385.07204 912.19854 385.69922 902.16406 C 391.97077 825.6511 393.85238 767.16835 391.34375 726.7168 C 388.83513 686.26525 391.03098 632.48651 397.92969 565.38086 C 406.08276 535.9045 408.59089 513.01306 405.45508 496.70703 C 394.16624 467.23071 387.89492 443.71271 386.64062 426.15234 L 390.40234 393.22656 L 399.81055 374.41211 C 400.43772 393.85397 404.51321 419.88009 412.03906 452.49219 C 409.53044 468.79823 410.78547 487.14281 415.80273 507.52539 C 420.81996 527.90797 423.64235 550.64233 424.26953 575.72852 C 417.37078 590.15314 414.54839 601.59981 415.80273 610.06641 C 417.05704 618.53296 417.99786 625.27392 418.625 630.29102 C 417.37071 635.3084 417.68495 638.4451 419.56641 639.69922 C 421.44787 640.32629 422.85813 639.07141 423.79883 635.93555 C 424.73975 632.7998 425.21094 629.03646 425.21094 624.64648 C 424.58382 619.62921 424.58382 615.23948 425.21094 611.47656 C 425.83811 610.22244 426.30728 609.43658 426.62109 609.125 C 426.93467 608.81174 427.40608 609.90917 428.0332 612.41797 C 428.66032 623.70674 427.87474 632.17392 425.67969 637.81836 C 423.48464 643.46274 421.13363 651.30146 418.625 661.33594 C 418.625 664.4718 419.40868 666.03906 420.97656 666.03906 C 422.5446 666.03906 423.01578 665.41233 422.38867 664.1582 C 423.64295 665.41288 424.58382 666.03906 425.21094 666.03906 C 426.46528 666.03906 427.0918 665.72668 427.0918 665.09961 C 427.71891 665.7289 428.65977 666.03906 429.91406 666.03906 C 431.16835 666.03906 431.79492 665.72668 431.79492 665.09961 C 433.04921 666.35207 434.30431 666.66613 435.55859 666.03906 C 436.81288 665.412 437.75369 663.84474 438.38086 661.33594 C 439.00804 655.06439 440.88959 647.85224 444.02539 639.69922 C 447.16114 631.54621 448.72852 625.27475 448.72852 620.88477 C 448.72852 614.61321 448.10195 609.59495 446.84766 605.83203 C 444.9662 595.79755 442.77036 587.01809 440.26172 579.49219 C 447.78761 526.8111 447.16105 487.61378 438.38086 461.90039 C 439.00804 424.89819 436.18563 388.83752 429.91406 353.7168 L 424.26953 341.48633 L 423.32812 304.79688 C 423.32812 226.40238 416.74446 176.85824 403.57422 156.16211 C 398.88335 148.91261 393.61241 142.96795 387.76172 138.32812 L 389.46289 129.82031 L 393.22461 129.82031 C 396.36042 127.93885 396.36042 125.74496 393.22461 123.23633 L 384.75781 123.23633 C 391.02938 120.72771 397.77207 116.18086 404.98438 109.5957 C 412.19668 103.01057 417.99857 89.99651 422.38867 70.554688 C 426.77872 51.112867 432.89295 35.904943 440.73242 24.929688 C 448.57185 13.95447 453.74526 5.6444017 456.25391 0 C 449.98234 1.8814795 441.35999 8.6241727 430.38477 20.226562 C 420.82365 30.33398 412.09446 49.364627 404.19922 77.320312 C 404.40879 75.431135 404.51367 73.490058 404.51367 71.496094 C 404.51367 57.071538 399.49738 44.371739 389.46289 33.396484 C 379.42839 22.421265 365.31642 16.933594 347.12891 16.933594 C 328.9414 16.933594 314.98654 22.421266 305.26562 33.396484 C 295.54468 44.371739 290.68555 57.071538 290.68555 71.496094 C 290.68555 73.954275 290.8436 76.331937 291.16211 78.630859 C 282.67946 49.958423 273.5848 30.49119 263.875 20.226562 C 252.89978 8.6241727 244.27548 1.8814795 238.00391 0 z M 347.12891 28.222656 C 360.92633 28.222656 371.74451 32.455272 379.58398 40.921875 C 387.42341 49.388478 391.34375 59.265881 391.34375 70.554688 C 391.34375 83.097798 387.11114 93.446596 378.64453 101.59961 C 370.17793 109.75269 359.67202 113.82812 347.12891 113.82812 C 334.5858 113.82812 323.92472 109.75267 315.14453 101.59961 C 306.36434 93.446596 302.28689 83.097798 302.91406 70.554688 C 302.91406 59.265881 306.8344 49.388478 314.67383 40.921875 C 322.5133 32.455272 333.3315 28.222656 347.12891 28.222656 z M 309.34961 127.93945 L 339.86523 127.93945 C 332.16404 128.1748 324.55025 129.11566 317.02539 130.76172 C 314.69735 131.44644 312.46342 132.23682 310.32227 133.13086 L 309.34961 127.93945 z M 347.60352 127.93945 L 381.93555 127.93945 L 380.87109 133.62109 C 380.29042 133.28389 379.70384 132.95754 379.11328 132.64258 C 368.45273 129.82067 357.95056 128.25325 347.60352 127.93945 z M 341.48438 141.10938 C 364.68911 141.10937 380.99502 148.00922 390.40234 161.80664 C 402.94549 183.12994 409.2168 230.79247 409.2168 304.79688 L 409.2168 341.48633 L 353.71484 341.48633 L 353.71484 220.13086 C 359.35924 213.85929 362.02453 204.45327 361.71094 191.91016 C 361.39735 179.36705 352.77305 175.28959 335.83984 179.67969 C 325.17821 171.52663 310.43968 168.39197 291.625 170.27344 C 297.89657 150.83162 314.51668 141.10938 341.48438 141.10938 z M 303.73828 178.85742 C 316.67337 179.09259 326.43244 182.50275 333.01758 189.08789 C 331.76323 190.3422 331.60611 193.79115 332.54688 199.43555 C 333.4876 205.07995 333.0182 209.31257 331.13672 212.13477 C 329.25526 214.95699 328.31445 217.62223 328.31445 220.13086 C 328.31445 224.5209 330.51029 226.7168 334.90039 226.7168 C 338.03619 226.7168 340.23008 225.77599 341.48438 223.89453 L 341.48438 284.10156 L 322.66992 284.10156 C 317.65266 274.0671 313.88949 262.15098 311.38086 248.35352 L 295.38867 248.35352 C 289.74429 248.35352 286.60954 246.4719 285.98242 242.70898 C 287.23673 237.06459 290.37146 233.9299 295.38867 233.30273 C 295.38867 230.16698 294.44788 228.59766 292.56641 228.59766 L 281.27734 228.59766 C 283.15879 224.20757 280.9649 221.07287 274.69336 219.19141 C 274.69336 216.68279 278.14231 208.21561 285.04102 193.79102 C 290.05829 191.28239 293.50721 190.02734 295.38867 190.02734 C 298.52446 190.02734 302.91419 190.96817 308.55859 192.84961 L 317.9668 192.84961 L 317.9668 189.08789 L 308.55859 189.08789 C 303.54136 186.57926 299.15165 185.32422 295.38867 185.32422 C 292.25288 185.32422 289.43048 185.63844 286.92188 186.26562 C 287.54904 182.50266 288.48983 180.30682 289.74414 179.67969 C 294.76139 179.05253 299.42658 178.77903 303.73828 178.85742 z M 347.01172 187.14648 C 351.00984 187.02888 353.24446 189.55837 353.71484 194.73242 C 351.83336 209.78415 345.24779 217.9371 333.95898 219.19141 C 337.09477 210.41122 338.19271 203.82565 337.25195 199.43555 C 336.31123 195.04546 338.03569 191.28223 342.42578 188.14648 C 344.15046 187.51932 345.67901 187.18568 347.01172 187.14648 z M 295.59375 192.35156 C 294.43743 192.29277 293.27162 192.30246 292.0957 192.38086 C 287.39201 192.69441 284.41447 196.92703 283.16016 205.08008 C 286.29595 206.96153 289.74489 207.58807 293.50781 206.96094 C 298.52507 206.96094 301.97403 204.45282 303.85547 199.43555 L 317.9668 199.43555 L 317.9668 194.73242 L 305.73633 194.73242 C 302.44379 193.32131 299.06271 192.52795 295.59375 192.35156 z M 294.44727 195.67188 C 297.58305 195.67188 300.40544 195.98611 302.91406 196.61328 C 301.0326 200.3762 298.83871 202.88438 296.33008 204.13867 C 297.58425 202.2572 298.05404 200.3756 297.74023 198.49414 C 297.42664 196.61268 296.32873 195.67188 294.44727 195.67188 z M 288.80273 196.61328 C 288.17583 198.49474 287.86328 200.21923 287.86328 201.78711 C 287.86328 203.12275 288.54482 204.11656 289.91016 204.76953 L 285.98242 203.19922 C 285.98242 200.69057 286.92128 198.49473 288.80273 196.61328 z M 60.205078 206.02148 C 73.375323 206.02148 84.664905 208.52961 94.072266 213.54688 C 81.529155 229.22577 70.239573 250.54792 60.205078 277.51562 C 50.170582 250.54793 38.882955 229.22577 26.339844 213.54688 C 35.747168 208.5296 47.034795 206.02148 60.205078 206.02148 z M 284.09961 298.21289 L 341.48438 298.21289 L 341.48438 357.47852 L 392.28516 357.47852 L 381.93555 380.05664 L 306.67773 380.05664 C 297.27043 380.68377 292.56641 377.54715 292.56641 370.64844 C 308.24531 340.54495 305.42295 316.40041 284.09961 298.21289 z M 321.72852 403.57422 L 369.70703 403.57422 C 368.45273 433.05049 371.90164 458.4501 380.05469 479.77344 C 388.20771 501.09674 389.30564 522.57799 383.34766 544.21484 C 377.38969 565.85172 374.25326 590.31053 373.93945 617.5918 C 373.62592 644.87307 372.5299 671.05636 370.64844 696.14258 C 376.29284 745.68791 374.09699 814.04799 364.0625 901.22266 L 304.79688 901.22266 C 316.71285 798.99625 318.43735 724.99138 309.9707 679.20898 C 301.5041 633.42657 297.26953 606.14536 297.26953 597.36523 C 298.52387 553.46432 306.67679 488.86742 321.72852 403.57422 z M 322.66992 914.39258 L 344.30664 914.39258 C 347.44243 927.56286 346.03221 938.69534 340.07422 947.78906 C 334.11624 956.88278 324.55111 962.99695 311.38086 966.13281 C 309.49938 955.47111 313.26256 938.22446 322.66992 914.39258 z " />
</svg>
